ui/StatusQ/src/assets/img/icons/reload.svg

<svg fill="none" height="20" viewBox="0 0 16 20" width="16" xmlns="http://www.w3.org/2000/svg"><path d="m8 4.25c4.2802 0 7.75 3.46979 7.75 7.75 0 4.2802-3.4698 7.75-7.75 7.75-4.28021 0-7.75-3.4698-7.75-7.75 0-.4142.335787-.75.75-.75.41421 0 .75.3358.75.75 0 3.4518 2.79822 6.25 6.25 6.25 3.4518 0 6.25-2.7982 6.25-6.25 0-3.45178-2.7982-6.25-6.25-6.25h-.98223c-.44545 0-.66854.53857-.35356.85355l1.86612 1.86612c.29289.29289.29289.76777 0 1.06066s-.76777.29289-1.06066 0l-4-4c-.29289-.29289-.29289-.76777 0-1.06066l4-4.000001c.29289-.292892.76777-.292892 1.06066 0 .29289.292895.29289.767771 0 1.060661l-1.86612 1.86612c-.31498.31498-.09189.85355.35356.85355z" fill="#000"/></svg>

<svg width="16" height="20" viewBox="0 0 16 20" fill="none" xmlns="http://www.w3.org/2000/svg">
<path d="M8 4.25C12.2802 4.25 15.75 7.71979 15.75 12C15.75 16.2802 12.2802 19.75 8 19.75C3.71979 19.75 0.25 16.2802 0.25 12C0.25 11.5858 0.585787 11.25 1 11.25C1.41421 11.25 1.75 11.5858 1.75 12C1.75 15.4518 4.54822 18.25 8 18.25C11.4518 18.25 14.25 15.4518 14.25 12C14.25 8.54822 11.4518 5.75 8 5.75H7.01777C6.57232 5.75 6.34923 6.28857 6.66421 6.60355L8.53033 8.46967C8.82322 8.76256 8.82322 9.23744 8.53033 9.53033C8.23744 9.82322 7.76256 9.82322 7.46967 9.53033L3.46967 5.53033C3.17678 5.23744 3.17678 4.76256 3.46967 4.46967L7.46967 0.469669C7.76256 0.176777 8.23744 0.176777 8.53033 0.469669C8.82322 0.762564 8.82322 1.23744 8.53033 1.53033L6.66421 3.39645C6.34923 3.71143 6.57232 4.25 7.01777 4.25H8Z" fill="black"/>
</svg>
